!!!OTL: Muede kehrt ein Wandersmann zurueck nach der Heimat seiner Liebe Glueck
!!!ARE: Europa, Mitteleuropa, Schweiz, Wimmis
!!!SCT: D1002
!!!YEM: Copyright 1995, estate of Helmut Schaffrath.
**kern
*ICvox
*Ivox
*M4/4
*k[f#]
*G:
{8d
8g
=1
4.b
8a
8g
8f#
8g
8a
=2
2d
4r}
{8d
8e
=3
4.a
8g
8f#
8a
8ee
8dd
=4
2b
4r}
{8d
8g
=5
4.b
8dd
8cc
8b
8a
8g
=6
2e
4r}
{8g
8e
=7
4.d
8g
8f#
8a
8cc
8b
=8
2g
4r}
==
!!!AGN: Liebes - Lied
!! DVA-Signatur A 18 747
!!!ONB: ESAC (Essen Associative Code) Database: DVA
!!!AMT: simple quadruple
!!!AIN: vox
!!!EED: Helmut Schaffrath
!!!EEV: 1.0
*-
